X:447
T: LEISE ZIEHT DURCH MEIN GEMUETH
N: F0836
O: Europa, Mitteleuropa, Deutschland
R: Romanze
M: 2/4
L: 1/8
K: D
 | AFAF | GAB2 |
dcdc | A2Fz |
BF^DF | BFG2 |
ABcd | f2e2 | d2z2

@@@ Tune index: 5878
